globe-light-outline.svg

<svg fill="currentColor" viewBox="0 0 24 24"><path d="M13 8.08V2h-2v6.08c-3.39.49-6 3.39-6 6.92 0 3.87 3.13 7 7 7s7-3.13 7-7c0-3.53-2.61-6.43-6-6.92M12 20c-2.76 0-5-2.24-5-5 0-1.13.39-2.16 1.03-3h7.94c.64.84 1.03 1.87 1.03 3 0 2.76-2.24 5-5 5"/></svg>

<svg  viewBox="0 0 24 24" fill="currentColor"><path  d="M13 8.08V2H11V8.08C7.61 8.57 5 11.47 5 15C5 18.87 8.13 22 12 22S19 18.87 19 15C19 11.47 16.39 8.57 13 8.08M12 20C9.24 20 7 17.76 7 15C7 13.87 7.39 12.84 8.03 12H15.97C16.61 12.84 17 13.87 17 15C17 17.76 14.76 20 12 20Z"/></svg>
